X: 1756
T: Oh I Must Go Home Tonight
B: australian traditional tunes wiki
M:3/4
L:1/8
R: Waltz
Q: 1/4=100
K:G
V:1 
D2_D2|"D7"C4D2|B4_B2|A6-|A4D2|"G"B,4D2|A4_A2|G6-|G4D2|
"D7"C4D2|E4F2|"G"B6|"D7"A4D2|"G"B6|"D7"A4D2|A6|"G"G4D2|
B2B2B2|"E7"B2c2B2|"Am"E6|A4G2|"D7"F4G2|A4^A2|"G"B6-|B4D2|
B2B2B2|"E7"B2c2B2|"A"B4A2|E2F2G2|"A7"B4A2|"D7"D4A2|"G"G6-|G2||
% abcbook-tune_id 6342d53a3eb8edf992ae92f2


% abcbook-boost 0
% abcbook-tablature 
% abcbook-transpose 
% abcbook-lastupdated 1665324381979
% abcbook-soundfonts 
% abcbook-repeats 1
% NFF Book 2018

